shader_type canvas_item;

uniform vec4 occupant_color = vec4(1.0, 1.0, 1.0, 1.0);

void vertex() {
	// Called for every vertex the material is visible on.
}

void fragment() {
	if (COLOR.a > 0.0) {
		COLOR = occupant_color;
	}
	// Called for every pixel the material is visible on.
}

//void light() {
	// Called for every pixel for every light affecting the CanvasItem.
	// Uncomment to replace the default light processing function with this one.
//}
